X:36
T:Ironclad
R:waltz
C:Jerry Holland, SOCAN
O:20th Century Cape Breton
S:Tune ofthe Month, June. 2000
H:For John Hartford In the hopes that this will fit his definition of an Ironclad tune and in recognition of the Ironclad friendship &amp; respect I feel for him.
A:Copyrights - www.fiddlesticksmusic.com (SOCAN)
N:Contacts ...
N:..... Jerry Holland <jerry@cranfordpub.com>
N:Tune books, related recordings
N:..... Cranford Publications <http://www.cranfordpub.com>
Z:Paul Stewart Cranford <psc@cranfordpub.com>
L:1/8
Q:244
M:3/4
K:D
a2 b2 a2|de f2 f/g/f/ z/|ef g2 e2|GA B2 B/c/B/ z/|A2 c2 e2|g2 b2 a2|a6|{g}a3 e fg|
a2 b2 a2|de f2 f/g/f/ z/|ef g2 e2|GA B2 B/c/B/ z/|A2 c2 e2|g2 f2 c/d/e/ z/|d6|1d3 e fg:|2d3 B cd||
K:A
e2 f2 e2|AB c2 e/f/g/a/|g/a/g f2 ga|ad f2 fe|e2 f2 e2|cd e2 e/f/g/a/|g/a/g f2 g<a|1a3 A cd:|2a3 e f=g|
